src/asset/24px/shine.svg

<svg width="24" height="24" viewBox="0 0 24 24" fill="none" xmlns="http://www.w3.org/2000/svg">
<path fill-rule="evenodd" clip-rule="evenodd" d="M12 1.99973C12.5523 1.99973 13 2.44744 13 2.99973V4.99973C13 5.55201 12.5523 5.99973 12 5.99973C11.4477 5.99973 11 5.55201 11 4.99973V2.99973C11 2.44744 11.4477 1.99973 12 1.99973ZM19.0711 4.92866C19.4616 5.31918 19.4616 5.95235 19.0711 6.34287L17.6569 7.75708C17.2663 8.14761 16.6332 8.14761 16.2426 7.75708C15.8521 7.36656 15.8521 6.7334 16.2426 6.34287L17.6569 4.92866C18.0474 4.53813 18.6805 4.53813 19.0711 4.92866ZM4.92902 4.92868C5.31954 4.53816 5.95271 4.53816 6.34323 4.92868L7.75744 6.34289C8.14797 6.73342 8.14797 7.36658 7.75744 7.75711C7.36692 8.14763 6.73375 8.14763 6.34323 7.75711L4.92902 6.34289C4.53849 5.95237 4.53849 5.3192 4.92902 4.92868ZM12 8.99973C10.3431 8.99973 9 10.3429 9 11.9997C9 13.6566 10.3431 14.9997 12 14.9997C13.6569 14.9997 15 13.6566 15 11.9997C15 10.3429 13.6569 8.99973 12 8.99973ZM7 11.9997C7 9.2383 9.23858 6.99973 12 6.99973C14.7614 6.99973 17 9.2383 17 11.9997C17 14.7611 14.7614 16.9997 12 16.9997C9.23858 16.9997 7 14.7611 7 11.9997ZM2 11.9997C2 11.4474 2.44772 10.9997 3 10.9997H5C5.55228 10.9997 6 11.4474 6 11.9997C6 12.552 5.55228 12.9997 5 12.9997H3C2.44772 12.9997 2 12.552 2 11.9997ZM18 11.9997C18 11.4474 18.4477 10.9997 19 10.9997H21C21.5523 10.9997 22 11.4474 22 11.9997C22 12.552 21.5523 12.9997 21 12.9997H19C18.4477 12.9997 18 12.552 18 11.9997ZM7.75736 16.2424C8.14788 16.6329 8.14788 17.2661 7.75736 17.6566L6.34315 19.0708C5.95262 19.4613 5.31946 19.4613 4.92893 19.0708C4.53841 18.6803 4.53841 18.0471 4.92893 17.6566L6.34315 16.2424C6.73367 15.8518 7.36684 15.8518 7.75736 16.2424ZM16.2427 16.2424C16.6332 15.8519 17.2664 15.8519 17.6569 16.2424L19.0711 17.6566C19.4617 18.0471 19.4617 18.6803 19.0711 19.0708C18.6806 19.4614 18.0474 19.4614 17.6569 19.0708L16.2427 17.6566C15.8522 17.2661 15.8522 16.6329 16.2427 16.2424ZM12 17.9997C12.5523 17.9997 13 18.4474 13 18.9997V20.9997C13 21.552 12.5523 21.9997 12 21.9997C11.4477 21.9997 11 21.552 11 20.9997V18.9997C11 18.4474 11.4477 17.9997 12 17.9997Z" fill="#808080"/>
</svg>

<svg width="24" height="24" fill="none" xmlns="http://www.w3.org/2000/svg"><path fill-rule="evenodd" clip-rule="evenodd" d="M12 2a1 1 0 011 1v2a1 1 0 11-2 0V3a1 1 0 011-1zm7.071 2.929a1 1 0 010 1.414l-1.414 1.414a1 1 0 01-1.414-1.414l1.414-1.414a1 1 0 011.414 0zm-14.142 0a1 1 0 011.414 0l1.414 1.414a1 1 0 11-1.414 1.414L4.93 6.343a1 1 0 010-1.414zM12 8.999a3 3 0 100 6 3 3 0 000-6zm-5 3a5 5 0 1110 0 5 5 0 01-10 0zm-5 0a1 1 0 011-1h2a1 1 0 110 2H3a1 1 0 01-1-1zm16 0a1 1 0 011-1h2a1 1 0 110 2h-2a1 1 0 01-1-1zM7.757 16.243a1 1 0 010 1.415L6.343 19.07a1 1 0 01-1.414-1.414l1.414-1.415a1 1 0 011.414 0zm8.486 0a1 1 0 011.414 0l1.414 1.415a1 1 0 11-1.414 1.414l-1.414-1.414a1 1 0 010-1.415zM12 18a1 1 0 011 1v2a1 1 0 11-2 0v-2a1 1 0 011-1z" fill="gray"/></svg>
